content/en/docs/ops/deployment/deployment-models/cluster-iso.svg

<svg xmlns="http://www.w3.org/2000/svg" viewBox="0 0 794.48 605.18"><defs><style>.a60c984d-4186-4bf1-8def-99b5e7f6596a,.a79467dc-3678-4362-b6d0-160029511391,.b4971398-89e5-4f37-8797-d9a88e248a78,.b5667360-ca4a-473f-875a-8ab2d14a0c62,.b973924d-d1cd-4493-a606-cd5da2af4f7a,.e3b9ca9a-06ae-48b0-b237-aaedb6f3ba49,.fdb51a02-7e58-4194-8036-673ccf7dfa99{fill:none}.e3b9ca9a-06ae-48b0-b237-aaedb6f3ba49{stroke:#466bb0;stroke-dasharray:9.97 9.97}.a60c984d-4186-4bf1-8def-99b5e7f6596a,.a79467dc-3678-4362-b6d0-160029511391,.b5667360-ca4a-473f-875a-8ab2d14a0c62,.e3b9ca9a-06ae-48b0-b237-aaedb6f3ba49,.fdb51a02-7e58-4194-8036-673ccf7dfa99{stroke-linejoin:round}.eba8737b-3158-4261-bd4b-15bf9c547623{font-size:13.88px;font-family:Roboto-Regular,Roboto}.f1ea531e-8cbe-4471-8e6f-13c66b6f4749{font-family:Roboto-Regular,Roboto}.a60c984d-4186-4bf1-8def-99b5e7f6596a{stroke:#fbb040;stroke-width:2px}.a79467dc-3678-4362-b6d0-160029511391,.b4971398-89e5-4f37-8797-d9a88e248a78,.b5667360-ca4a-473f-875a-8ab2d14a0c62{stroke-width:2px}.b5a2688c-5707-4604-9a35-84a6a1da216b{letter-spacing:-.03em}.bb07927b-b2ed-46ea-8067-d8344a380c6b{letter-spacing:-.04em}.b5667360-ca4a-473f-875a-8ab2d14a0c62,.fdb51a02-7e58-4194-8036-673ccf7dfa99{stroke:#e905ee}.accb3f93-b32a-4b59-bf84-d4a7d0244886{fill:#e6e6e6}.bc5045b5-855e-44fd-84c8-f593aad604f4{fill:#fff}.fdb51a02-7e58-4194-8036-673ccf7dfa99{stroke-width:3px}.f1ea531e-8cbe-4471-8e6f-13c66b6f4749{font-size:16.2px}.be7d41ee-de81-4da8-bbb4-6991bc5e9baf{letter-spacing:.01em}.add76ed5-0af2-4f53-83db-c1f605d2c1ce{fill:#757575}.a79467dc-3678-4362-b6d0-160029511391,.b4971398-89e5-4f37-8797-d9a88e248a78{stroke:#fff}.b4971398-89e5-4f37-8797-d9a88e248a78{stroke-linecap:round;stroke-miterlimit:10}.b973924d-d1cd-4493-a606-cd5da2af4f7a{stroke-miterlimit:10;stroke:#090;stroke-width:4px}.a3220650-707d-4a30-bbbb-3126de5dced9{fill:#090}</style></defs><g id="ada3b081-4c71-40e3-8481-fca51969ea40" data-name="cluster-iso"><rect class="e3b9ca9a-06ae-48b0-b237-aaedb6f3ba49" x=".5" y="15.85" width="376.89" height="588.83" rx="10"/><text class="eba8737b-3158-4261-bd4b-15bf9c547623" transform="translate(.48 11.88)">Istio Mesh: Business Unit 1</text><rect class="e3b9ca9a-06ae-48b0-b237-aaedb6f3ba49" x="417.09" y="15.85" width="376.89" height="588.83" rx="10"/><text class="eba8737b-3158-4261-bd4b-15bf9c547623" transform="translate(417.07 11.88)">Istio Mesh: Business Unit 2</text><rect class="a60c984d-4186-4bf1-8def-99b5e7f6596a" x="25.57" y="73.57" width="336.54" height="473.03" rx="10"/><text class="eba8737b-3158-4261-bd4b-15bf9c547623" transform="translate(25.79 69.95)">Cluster:<tspan class="b5a2688c-5707-4604-9a35-84a6a1da216b" x="47.17" y="0"> </tspan><tspan class="bb07927b-b2ed-46ea-8067-d8344a380c6b" x="50.22" y="0">T</tspan><tspan x="57.89" y="0">eam-1</tspan></text><rect class="a60c984d-4186-4bf1-8def-99b5e7f6596a" x="437.26" y="73.57" width="336.54" height="473.03" rx="10"/><text class="eba8737b-3158-4261-bd4b-15bf9c547623" transform="translate(437.48 69.95)">Cluster:<tspan class="b5a2688c-5707-4604-9a35-84a6a1da216b" x="47.17" y="0"> </tspan><tspan class="bb07927b-b2ed-46ea-8067-d8344a380c6b" x="50.22" y="0">T</tspan><tspan x="57.89" y="0">eam-2</tspan></text><text class="eba8737b-3158-4261-bd4b-15bf9c547623" transform="translate(55.67 116.15)">Namespace: bar</text><rect class="b5667360-ca4a-473f-875a-8ab2d14a0c62" x="55.75" y="119.63" width="286.65" height="380.78" rx="10"/><text class="eba8737b-3158-4261-bd4b-15bf9c547623" transform="translate(461.27 116.15)">Namespace: foo</text><rect class="b5667360-ca4a-473f-875a-8ab2d14a0c62" x="461.35" y="119.63" width="286.65" height="380.78" rx="10"/><rect class="accb3f93-b32a-4b59-bf84-d4a7d0244886" x="490.29" y="166.18" width="228.69" height="83.31" rx="3"/><rect class="bc5045b5-855e-44fd-84c8-f593aad604f4" x="500.3" y="176.59" width="62.48" height="62.48" rx="3"/><path class="fdb51a02-7e58-4194-8036-673ccf7dfa99" d="M546.88 216.69v-17.71l-15.34-8.85-15.35 8.85v17.71l15.35 8.85 15.34-8.85z"/><rect class="bc5045b5-855e-44fd-84c8-f593aad604f4" x="573.19" y="176.59" width="135.38" height="62.48" rx="3"/><text class="f1ea531e-8cbe-4471-8e6f-13c66b6f4749" transform="translate(633.89 213.43)">Se<tspan class="be7d41ee-de81-4da8-bbb4-6991bc5e9baf" x="18.19" y="0">r</tspan><tspan x="23.82" y="0">vice C</tspan></text><circle class="add76ed5-0af2-4f53-83db-c1f605d2c1ce" cx="604.43" cy="207.83" r="20.83"/><path class="a79467dc-3678-4362-b6d0-160029511391" d="M597.03 200.3h14.8v14.8h-14.8z"/><path class="b4971398-89e5-4f37-8797-d9a88e248a78" d="M599.77 200.3v-3.57m4.66 3.57v-3.57m4.66 3.57v-3.57m-9.32 22.2v-3.56m4.66 3.56v-3.56m4.66 3.56v-3.56m-12.2-2.88h-3.56m3.56-4.66h-3.56m3.56-4.66h-3.56m22.2 9.32h-3.56m3.56-4.66h-3.56m3.56-4.66h-3.56"/><rect class="bc5045b5-855e-44fd-84c8-f593aad604f4" x="601.14" y="204.41" width="6.58" height="6.58" rx="2"/><rect class="accb3f93-b32a-4b59-bf84-d4a7d0244886" x="84.69" y="166.18" width="228.69" height="83.31" rx="3"/><rect class="bc5045b5-855e-44fd-84c8-f593aad604f4" x="94.7" y="176.59" width="135.38" height="62.48" rx="3"/><text class="f1ea531e-8cbe-4471-8e6f-13c66b6f4749" transform="translate(155.38 213.43)">Se<tspan class="be7d41ee-de81-4da8-bbb4-6991bc5e9baf" x="18.19" y="0">r</tspan><tspan x="23.82" y="0">vice A</tspan></text><circle class="add76ed5-0af2-4f53-83db-c1f605d2c1ce" cx="125.94" cy="207.83" r="20.83"/><path class="a79467dc-3678-4362-b6d0-160029511391" d="M118.54 200.3h14.8v14.8h-14.8z"/><path class="b4971398-89e5-4f37-8797-d9a88e248a78" d="M121.28 200.3v-3.57m4.66 3.57v-3.57m4.66 3.57v-3.57m-9.32 22.2v-3.56m4.66 3.56v-3.56m4.66 3.56v-3.56m-12.2-2.88h-3.56m3.56-4.66h-3.56m3.56-4.66h-3.56m22.2 9.32h-3.57m3.57-4.66h-3.57m3.57-4.66h-3.57"/><rect class="bc5045b5-855e-44fd-84c8-f593aad604f4" x="122.65" y="204.41" width="6.58" height="6.58" rx="2"/><rect class="bc5045b5-855e-44fd-84c8-f593aad604f4" x="240.49" y="176.59" width="62.48" height="62.48" rx="3"/><path class="fdb51a02-7e58-4194-8036-673ccf7dfa99" d="M287.07 216.69v-17.71l-15.34-8.85-15.34 8.85v17.71l15.34 8.85 15.34-8.85z"/><rect class="accb3f93-b32a-4b59-bf84-d4a7d0244886" x="490.29" y="358.25" width="228.69" height="83.31" rx="3"/><rect class="bc5045b5-855e-44fd-84c8-f593aad604f4" x="500.3" y="368.67" width="62.48" height="62.48" rx="3"/><path class="fdb51a02-7e58-4194-8036-673ccf7dfa99" d="M546.88 408.76v-17.7l-15.34-8.86-15.35 8.86v17.7l15.35 8.85 15.34-8.85z"/><rect class="bc5045b5-855e-44fd-84c8-f593aad604f4" x="573.19" y="368.67" width="135.38" height="62.48" rx="3"/><text class="f1ea531e-8cbe-4471-8e6f-13c66b6f4749" transform="translate(633.85 405.51)">Se<tspan class="be7d41ee-de81-4da8-bbb4-6991bc5e9baf" x="18.19" y="0">r</tspan><tspan x="23.82" y="0">vice D</tspan></text><circle class="add76ed5-0af2-4f53-83db-c1f605d2c1ce" cx="604.43" cy="399.91" r="20.83"/><path class="a79467dc-3678-4362-b6d0-160029511391" d="M597.03 392.37h14.8v14.8h-14.8z"/><path class="b4971398-89e5-4f37-8797-d9a88e248a78" d="M599.77 392.37v-3.56m4.66 3.56v-3.56m4.66 3.56v-3.56m-9.32 22.2v-3.57m4.66 3.57v-3.57m4.66 3.57v-3.57m-12.2-2.87h-3.56m3.56-4.66h-3.56m3.56-4.66h-3.56m22.2 9.32h-3.56m3.56-4.66h-3.56m3.56-4.66h-3.56"/><rect class="bc5045b5-855e-44fd-84c8-f593aad604f4" x="601.14" y="396.48" width="6.58" height="6.58" rx="2"/><rect class="accb3f93-b32a-4b59-bf84-d4a7d0244886" x="84.69" y="358.25" width="228.69" height="83.31" rx="3"/><rect class="bc5045b5-855e-44fd-84c8-f593aad604f4" x="94.7" y="368.67" width="135.38" height="62.48" rx="3"/><text class="f1ea531e-8cbe-4471-8e6f-13c66b6f4749" transform="translate(155.62 405.51)">Se<tspan class="be7d41ee-de81-4da8-bbb4-6991bc5e9baf" x="18.19" y="0">r</tspan><tspan x="23.82" y="0">vice B</tspan></text><circle class="add76ed5-0af2-4f53-83db-c1f605d2c1ce" cx="125.94" cy="399.91" r="20.83"/><path class="a79467dc-3678-4362-b6d0-160029511391" d="M118.54 392.37h14.8v14.8h-14.8z"/><path class="b4971398-89e5-4f37-8797-d9a88e248a78" d="M121.28 392.37v-3.56m4.66 3.56v-3.56m4.66 3.56v-3.56m-9.32 22.2v-3.57m4.66 3.57v-3.57m4.66 3.57v-3.57m-12.2-2.87h-3.56m3.56-4.66h-3.56m3.56-4.66h-3.56m22.2 9.32h-3.57m3.57-4.66h-3.57m3.57-4.66h-3.57"/><rect class="bc5045b5-855e-44fd-84c8-f593aad604f4" x="122.65" y="396.48" width="6.58" height="6.58" rx="2"/><rect class="bc5045b5-855e-44fd-84c8-f593aad604f4" x="240.49" y="368.67" width="62.48" height="62.48" rx="3"/><path class="fdb51a02-7e58-4194-8036-673ccf7dfa99" d="M287.07 408.76v-17.7l-15.34-8.86-15.34 8.86v17.7l15.34 8.85 15.34-8.85z"/><path class="b973924d-d1cd-4493-a606-cd5da2af4f7a" d="M271.73 246.25v115.24"/><path class="a3220650-707d-4a30-bbbb-3126de5dced9" d="M266.74 247.71l4.99-8.64 4.98 8.64h-9.97zm0 112.32l4.99 8.64 4.98-8.64h-9.97z"/><path class="b973924d-d1cd-4493-a606-cd5da2af4f7a" d="M531.54 246.25v115.24"/><path class="a3220650-707d-4a30-bbbb-3126de5dced9" d="M526.55 247.71l4.99-8.64 4.98 8.64h-9.97zm0 112.32l4.99 8.64 4.98-8.64h-9.97z"/></g></svg>

<svg xmlns="http://www.w3.org/2000/svg" viewBox="0 0 794.48 605.18"><defs><style>.a60c984d-4186-4bf1-8def-99b5e7f6596a,.a79467dc-3678-4362-b6d0-160029511391,.b4971398-89e5-4f37-8797-d9a88e248a78,.b5667360-ca4a-473f-875a-8ab2d14a0c62,.b973924d-d1cd-4493-a606-cd5da2af4f7a,.e3b9ca9a-06ae-48b0-b237-aaedb6f3ba49,.fdb51a02-7e58-4194-8036-673ccf7dfa99{fill:none}.e3b9ca9a-06ae-48b0-b237-aaedb6f3ba49{stroke:#466bb0;stroke-dasharray:9.97 9.97}.a60c984d-4186-4bf1-8def-99b5e7f6596a,.a79467dc-3678-4362-b6d0-160029511391,.b5667360-ca4a-473f-875a-8ab2d14a0c62,.e3b9ca9a-06ae-48b0-b237-aaedb6f3ba49,.fdb51a02-7e58-4194-8036-673ccf7dfa99{stroke-linejoin:round}.eba8737b-3158-4261-bd4b-15bf9c547623{font-size:13.88px;font-family:Roboto-Regular,Roboto}.f1ea531e-8cbe-4471-8e6f-13c66b6f4749{font-family:Roboto-Regular,Roboto}.a60c984d-4186-4bf1-8def-99b5e7f6596a{stroke:#fbb040;stroke-width:2px}.a79467dc-3678-4362-b6d0-160029511391,.b4971398-89e5-4f37-8797-d9a88e248a78,.b5667360-ca4a-473f-875a-8ab2d14a0c62{stroke-width:2px}.b5a2688c-5707-4604-9a35-84a6a1da216b{letter-spacing:-.03em}.bb07927b-b2ed-46ea-8067-d8344a380c6b{letter-spacing:-.04em}.b5667360-ca4a-473f-875a-8ab2d14a0c62,.fdb51a02-7e58-4194-8036-673ccf7dfa99{stroke:#e905ee}.accb3f93-b32a-4b59-bf84-d4a7d0244886{fill:#e6e6e6}.bc5045b5-855e-44fd-84c8-f593aad604f4{fill:#fff}.fdb51a02-7e58-4194-8036-673ccf7dfa99{stroke-width:3px}.f1ea531e-8cbe-4471-8e6f-13c66b6f4749{font-size:16.2px}.be7d41ee-de81-4da8-bbb4-6991bc5e9baf{letter-spacing:.01em}.add76ed5-0af2-4f53-83db-c1f605d2c1ce{fill:#757575}.a79467dc-3678-4362-b6d0-160029511391,.b4971398-89e5-4f37-8797-d9a88e248a78{stroke:#fff}.b4971398-89e5-4f37-8797-d9a88e248a78{stroke-linecap:round;stroke-miterlimit:10}.b973924d-d1cd-4493-a606-cd5da2af4f7a{stroke-miterlimit:10;stroke:#090;stroke-width:4px}.a3220650-707d-4a30-bbbb-3126de5dced9{fill:#090}</style></defs><g id="ada3b081-4c71-40e3-8481-fca51969ea40" data-name="cluster-iso"><rect class="e3b9ca9a-06ae-48b0-b237-aaedb6f3ba49" x=".5" y="15.85" width="376.89" height="588.83" rx="10"/><text class="eba8737b-3158-4261-bd4b-15bf9c547623" transform="translate(.48 11.88)">Istio Mesh: Business Unit 1</text><rect class="e3b9ca9a-06ae-48b0-b237-aaedb6f3ba49" x="417.09" y="15.85" width="376.89" height="588.83" rx="10"/><text class="eba8737b-3158-4261-bd4b-15bf9c547623" transform="translate(417.07 11.88)">Istio Mesh: Business Unit 2</text><rect class="a60c984d-4186-4bf1-8def-99b5e7f6596a" x="25.57" y="73.57" width="336.54" height="473.03" rx="10"/><text class="eba8737b-3158-4261-bd4b-15bf9c547623" transform="translate(25.79 69.95)">Cluster:<tspan class="b5a2688c-5707-4604-9a35-84a6a1da216b" x="47.17" y="0"> </tspan><tspan class="bb07927b-b2ed-46ea-8067-d8344a380c6b" x="50.22" y="0">T</tspan><tspan x="57.89" y="0">eam-1</tspan></text><rect class="a60c984d-4186-4bf1-8def-99b5e7f6596a" x="437.26" y="73.57" width="336.54" height="473.03" rx="10"/><text class="eba8737b-3158-4261-bd4b-15bf9c547623" transform="translate(437.48 69.95)">Cluster:<tspan class="b5a2688c-5707-4604-9a35-84a6a1da216b" x="47.17" y="0"> </tspan><tspan class="bb07927b-b2ed-46ea-8067-d8344a380c6b" x="50.22" y="0">T</tspan><tspan x="57.89" y="0">eam-2</tspan></text><text class="eba8737b-3158-4261-bd4b-15bf9c547623" transform="translate(55.67 116.15)">Namespace: bar</text><rect class="b5667360-ca4a-473f-875a-8ab2d14a0c62" x="55.75" y="119.63" width="286.65" height="380.78" rx="10"/><text class="eba8737b-3158-4261-bd4b-15bf9c547623" transform="translate(461.27 116.15)">Namespace: foo</text><rect class="b5667360-ca4a-473f-875a-8ab2d14a0c62" x="461.35" y="119.63" width="286.65" height="380.78" rx="10"/><rect class="accb3f93-b32a-4b59-bf84-d4a7d0244886" x="490.29" y="166.18" width="228.69" height="83.31" rx="3"/><rect class="bc5045b5-855e-44fd-84c8-f593aad604f4" x="500.3" y="176.59" width="62.48" height="62.48" rx="3"/><path class="fdb51a02-7e58-4194-8036-673ccf7dfa99" d="M546.88 216.69v-17.71l-15.34-8.85-15.35 8.85v17.71l15.35 8.85 15.34-8.85z"/><rect class="bc5045b5-855e-44fd-84c8-f593aad604f4" x="573.19" y="176.59" width="135.38" height="62.48" rx="3"/><text class="f1ea531e-8cbe-4471-8e6f-13c66b6f4749" transform="translate(633.89 213.43)">Se<tspan class="be7d41ee-de81-4da8-bbb4-6991bc5e9baf" x="18.19" y="0">r</tspan><tspan x="23.82" y="0">vice C</tspan></text><circle class="add76ed5-0af2-4f53-83db-c1f605d2c1ce" cx="604.43" cy="207.83" r="20.83"/><path class="a79467dc-3678-4362-b6d0-160029511391" d="M597.03 200.3h14.8v14.8h-14.8z"/><path class="b4971398-89e5-4f37-8797-d9a88e248a78" d="M599.77 200.3v-3.57M604.43 200.3v-3.57M609.09 200.3v-3.57M599.77 218.93v-3.56M604.43 218.93v-3.56M609.09 218.93v-3.56M596.89 212.49h-3.56M596.89 207.83h-3.56M596.89 203.17h-3.56M615.53 212.49h-3.56M615.53 207.83h-3.56M615.53 203.17h-3.56"/><rect class="bc5045b5-855e-44fd-84c8-f593aad604f4" x="601.14" y="204.41" width="6.58" height="6.58" rx="2"/><rect class="accb3f93-b32a-4b59-bf84-d4a7d0244886" x="84.69" y="166.18" width="228.69" height="83.31" rx="3"/><rect class="bc5045b5-855e-44fd-84c8-f593aad604f4" x="94.7" y="176.59" width="135.38" height="62.48" rx="3"/><text class="f1ea531e-8cbe-4471-8e6f-13c66b6f4749" transform="translate(155.38 213.43)">Se<tspan class="be7d41ee-de81-4da8-bbb4-6991bc5e9baf" x="18.19" y="0">r</tspan><tspan x="23.82" y="0">vice A</tspan></text><circle class="add76ed5-0af2-4f53-83db-c1f605d2c1ce" cx="125.94" cy="207.83" r="20.83"/><path class="a79467dc-3678-4362-b6d0-160029511391" d="M118.54 200.3h14.8v14.8h-14.8z"/><path class="b4971398-89e5-4f37-8797-d9a88e248a78" d="M121.28 200.3v-3.57M125.94 200.3v-3.57M130.6 200.3v-3.57M121.28 218.93v-3.56M125.94 218.93v-3.56M130.6 218.93v-3.56M118.4 212.49h-3.56M118.4 207.83h-3.56M118.4 203.17h-3.56M137.04 212.49h-3.57M137.04 207.83h-3.57M137.04 203.17h-3.57"/><rect class="bc5045b5-855e-44fd-84c8-f593aad604f4" x="122.65" y="204.41" width="6.58" height="6.58" rx="2"/><rect class="bc5045b5-855e-44fd-84c8-f593aad604f4" x="240.49" y="176.59" width="62.48" height="62.48" rx="3"/><path class="fdb51a02-7e58-4194-8036-673ccf7dfa99" d="M287.07 216.69v-17.71l-15.34-8.85-15.34 8.85v17.71l15.34 8.85 15.34-8.85z"/><rect class="accb3f93-b32a-4b59-bf84-d4a7d0244886" x="490.29" y="358.25" width="228.69" height="83.31" rx="3"/><rect class="bc5045b5-855e-44fd-84c8-f593aad604f4" x="500.3" y="368.67" width="62.48" height="62.48" rx="3"/><path class="fdb51a02-7e58-4194-8036-673ccf7dfa99" d="M546.88 408.76v-17.7l-15.34-8.86-15.35 8.86v17.7l15.35 8.85 15.34-8.85z"/><rect class="bc5045b5-855e-44fd-84c8-f593aad604f4" x="573.19" y="368.67" width="135.38" height="62.48" rx="3"/><text class="f1ea531e-8cbe-4471-8e6f-13c66b6f4749" transform="translate(633.85 405.51)">Se<tspan class="be7d41ee-de81-4da8-bbb4-6991bc5e9baf" x="18.19" y="0">r</tspan><tspan x="23.82" y="0">vice D</tspan></text><circle class="add76ed5-0af2-4f53-83db-c1f605d2c1ce" cx="604.43" cy="399.91" r="20.83"/><path class="a79467dc-3678-4362-b6d0-160029511391" d="M597.03 392.37h14.8v14.8h-14.8z"/><path class="b4971398-89e5-4f37-8797-d9a88e248a78" d="M599.77 392.37v-3.56M604.43 392.37v-3.56M609.09 392.37v-3.56M599.77 411.01v-3.57M604.43 411.01v-3.57M609.09 411.01v-3.57M596.89 404.57h-3.56M596.89 399.91h-3.56M596.89 395.25h-3.56M615.53 404.57h-3.56M615.53 399.91h-3.56M615.53 395.25h-3.56"/><rect class="bc5045b5-855e-44fd-84c8-f593aad604f4" x="601.14" y="396.48" width="6.58" height="6.58" rx="2"/><rect class="accb3f93-b32a-4b59-bf84-d4a7d0244886" x="84.69" y="358.25" width="228.69" height="83.31" rx="3"/><rect class="bc5045b5-855e-44fd-84c8-f593aad604f4" x="94.7" y="368.67" width="135.38" height="62.48" rx="3"/><text class="f1ea531e-8cbe-4471-8e6f-13c66b6f4749" transform="translate(155.62 405.51)">Se<tspan class="be7d41ee-de81-4da8-bbb4-6991bc5e9baf" x="18.19" y="0">r</tspan><tspan x="23.82" y="0">vice B</tspan></text><circle class="add76ed5-0af2-4f53-83db-c1f605d2c1ce" cx="125.94" cy="399.91" r="20.83"/><path class="a79467dc-3678-4362-b6d0-160029511391" d="M118.54 392.37h14.8v14.8h-14.8z"/><path class="b4971398-89e5-4f37-8797-d9a88e248a78" d="M121.28 392.37v-3.56M125.94 392.37v-3.56M130.6 392.37v-3.56M121.28 411.01v-3.57M125.94 411.01v-3.57M130.6 411.01v-3.57M118.4 404.57h-3.56M118.4 399.91h-3.56M118.4 395.25h-3.56M137.04 404.57h-3.57M137.04 399.91h-3.57M137.04 395.25h-3.57"/><rect class="bc5045b5-855e-44fd-84c8-f593aad604f4" x="122.65" y="396.48" width="6.58" height="6.58" rx="2"/><rect class="bc5045b5-855e-44fd-84c8-f593aad604f4" x="240.49" y="368.67" width="62.48" height="62.48" rx="3"/><path class="fdb51a02-7e58-4194-8036-673ccf7dfa99" d="M287.07 408.76v-17.7l-15.34-8.86-15.34 8.86v17.7l15.34 8.85 15.34-8.85z"/><path class="b973924d-d1cd-4493-a606-cd5da2af4f7a" d="M271.73 246.25v115.24"/><path class="a3220650-707d-4a30-bbbb-3126de5dced9" d="M266.74 247.71l4.99-8.64 4.98 8.64h-9.97zM266.74 360.03l4.99 8.64 4.98-8.64h-9.97z"/><path class="b973924d-d1cd-4493-a606-cd5da2af4f7a" d="M531.54 246.25v115.24"/><path class="a3220650-707d-4a30-bbbb-3126de5dced9" d="M526.55 247.71l4.99-8.64 4.98 8.64h-9.97zM526.55 360.03l4.99 8.64 4.98-8.64h-9.97z"/></g></svg>
